X:3415
T:La Marmite
O:england
M:3/8
L:1/8
K:C
c|d/e/dc|BGc|d/e/dB|c2:|\
|:c|d/e/fd|g2f|d/e/cd|BGc|\
d/e/fd|g2f|d/e/cB|c2||


